X: 35204
T: Rorie Lynn
R: reel
M: 4/4
K: Dmajor
|:ABdD DBAD|ABAG EGA2|ABdD DBAD|ABAG EED2|
ABdD DBAD|DBAG EGA2|ABde fgfe|def2 d2d2:|
|:efaA AfeA|Afed Bde2|efaA AfeA|efed BBA2|
efaA AfeA|efed Bde2|efga gfe2|def2 d2d2:|

